X: 2307
M: 6/8
L: 1/8
K: G
(uG/B/) |\
ded ded | gfe (d2c) | BdD BdD | ABA ABc |\
ded ded | gfe (d2c) | BdD AdF | GAG G2 :|
|: uD |\


